X: 1134
T: Off to Donnybrook
M: 6/8
L: 1/8
R: jig
K: G Major
|: E |
DGG BGG | AGG GBd | efg dBG | AGG BGE |
DGG BGG | AGG GBd | efg dBG | AGA G2 :|
|: f |
gfg efg | edB def | gfg eag | fdd d2 f |
gfg efg | edB def |[1 gfe dBA | BGG G2 :|[2 gba gfe | dBA BG ||
